X: 2
T: Bloomsbury Place
%R: reel
B: Thomas Wilson, Harmony "Four New Country Dances" #2
F: https://archive.org/details/Wilson4NewCountryDances
Z: 2015 John Chambers <jc:trillian.mit.edu>
N: Repeats fixed to match the "(each strain repeated)" instruction.
M: 2/4
L: 1/16
Q: "Allegro"
K: A
% - - - - - - - - - - - - - - - - - - - - - - - - - - - - -
V: 1 clef=treble middle=B
cd |\
eace AcEA | CEA,C E/F/G/A/ Bc/d/ |\
eace AcEA | CEDG A2 :|
|: BA |\
GB Ee Ac Ee | GB Ee Ac Ee |\
a/g/f/e/d/c/B/A/ Ag/f/e/d/c/B/ | A/G/F/E/ FG [A2C2] :|
% - - - - - - - - - - - - - - - - - - - - - - - - - - - - -
V: 2 clef=bass middle=d
z2 |\
[A2a2]e2[A2a2]e2 [A2a2]e2 [E2e2]E2 |\
[A2a2]e2[A2a2]e2 [A2a2]e2 [A2a2] :|
|: z2 |\
[e2g2b2]d'2[e2a2]c'2 | [e2g2b2]d'2[e2a2]c'2 |
[c2e2c'2]a2[d2f2a2]d'2 | [e2g2b2]d'2 [A2e2a2] :|
% - - - - - - - - - - Dance description - - - - - - - - - -
%%text  SINGLE FIGURE (each strain repeated)
%%begintext align
%% Cast off two Couple and back again :| cross
%% over one Couple and half figure round the
%% 3d Couple |: .
%%endtext
%%text  DOUBLE FIGURE (the tune played twice tho' with rep.ts)
%%begintext align
%% Whole figure at top |: lead down the middle up
%% again right and left |: turn corners |: hands 4
%% round at bottom and half poussette at top |:
%%endtext

%%sep 1 1 500
%%sep 1 1 500
